app/assets/img/inline_icons/social_youtube.svg

<?xml version="1.0" encoding="UTF-8"?>
<svg width="21px" height="21px" viewBox="0 0 21 21" version="1.1" xmlns="http://www.w3.org/2000/svg" xmlns:xlink="http://www.w3.org/1999/xlink">
    <!-- Generator: sketchtool 48.1 (47250) - http://www.bohemiancoding.com/sketch -->
    <title>479AC750-D3E6-4EC8-BF41-B11BCE64567D</title>
    <desc>Created with sketchtool.</desc>
    <defs></defs>
    <g id="ETO_Form_media" stroke="none" stroke-width="1" fill="none" fill-rule="evenodd" transform="translate(-567.000000, -374.000000)">
        <g id="social" transform="translate(471.000000, 293.000000)" fill="#AABCCA" fill-rule="nonzero">
            <g id="youtube-logotype" transform="translate(96.000000, 81.000000)">
                <polygon id="Shape" points="5.502 11.2461429 6.33235714 11.2461429 6.33235714 15.7403571 7.11792857 15.7403571 7.11792857 11.2461429 7.96371429 11.2461429 7.96371429 10.5100714 5.502 10.5100714"></polygon>
                <path d="M12.1444286,11.7955714 C11.8847143,11.7955714 11.6423571,11.9374286 11.4145714,12.2181429 L11.4145714,10.5098571 L10.7085,10.5098571 L10.7085,15.7403571 L11.4145714,15.7403571 L11.4145714,15.3627857 C11.6509286,15.6544286 11.8930714,15.7941429 12.1444286,15.7941429 C12.4253571,15.7941429 12.6143571,15.6462857 12.7086429,15.3561429 C12.756,15.1909286 12.7802143,14.9314286 12.7802143,14.5707857 L12.7802143,13.0189286 C12.7802143,12.6499286 12.756,12.3923571 12.7086429,12.2357143 C12.6145714,11.9434286 12.4251429,11.7955714 12.1444286,11.7955714 Z M12.0737143,14.6260714 C12.0737143,14.9783571 11.9704286,15.1519286 11.7664286,15.1519286 C11.6505,15.1519286 11.5324286,15.0964286 11.4143571,14.9781429 L11.4143571,12.603 C11.5324286,12.4862143 11.6505,12.4309286 11.7664286,12.4309286 C11.9702143,12.4309286 12.0737143,12.6113571 12.0737143,12.9627857 L12.0737143,14.6260714 Z" id="Shape"></path>
                <path d="M9.39085714,14.8215 C9.23421429,15.0428571 9.08614286,15.1519286 8.94428571,15.1519286 C8.85,15.1519286 8.79621429,15.0964286 8.77907143,14.9867143 C8.77264286,14.964 8.77264286,14.8778571 8.77264286,14.7124286 L8.77264286,11.8431429 L8.06635714,11.8431429 L8.06635714,14.9243571 C8.06635714,15.1997143 8.09014286,15.3857143 8.12871429,15.504 C8.19964286,15.7015714 8.3565,15.7941429 8.58364286,15.7941429 C8.84357143,15.7941429 9.11014286,15.6372857 9.39085714,15.3154286 L9.39085714,15.7405714 L10.0975714,15.7405714 L10.0975714,11.8431429 L9.39085714,11.8431429 L9.39085714,14.8215 Z" id="Shape"></path>
                <path d="M9.99707143,8.24271429 C10.227,8.24271429 10.3373571,8.06035714 10.3373571,7.69607143 L10.3373571,6.03942857 C10.3373571,5.67492857 10.227,5.49342857 9.99707143,5.49342857 C9.76692857,5.49342857 9.65635714,5.67514286 9.65635714,6.03942857 L9.65635714,7.69607143 C9.65635714,8.06057143 9.76692857,8.24271429 9.99707143,8.24271429 Z" id="Shape"></path>
                <path d="M10.4732143,0 C4.689,0 0,4.689 0,10.4732143 C0,16.2574286 4.689,20.9464286 10.4732143,20.9464286 C16.2574286,20.9464286 20.9464286,16.2574286 20.9464286,10.4732143 C20.9464286,4.689 16.2574286,0 10.4732143,0 Z M11.6380714,4.89857143 L12.3497143,4.89857143 L12.3497143,7.79828571 C12.3497143,7.96564286 12.3497143,8.05242857 12.3582857,8.07578571 C12.3739286,8.18635714 12.4300714,8.24292857 12.5256429,8.24292857 C12.6683571,8.24292857 12.8181429,8.13235714 12.9765,7.90885714 L12.9765,4.89857143 L13.6900714,4.89857143 L13.6900714,8.83692857 L12.9765,8.83692857 L12.9765,8.4075 C12.6923571,8.73321429 12.4215,8.89114286 12.1611429,8.89114286 C11.9314286,8.89114286 11.7728571,8.79792857 11.7012857,8.59864286 C11.6618571,8.47928571 11.6380714,8.29092857 11.6380714,8.013 L11.6380714,4.89857143 Z M8.94278571,6.18278571 C8.94278571,5.76171429 9.01435714,5.454 9.16607143,5.25492857 C9.36342857,4.98557143 9.64135714,4.851 9.99707143,4.851 C10.3545,4.851 10.6322143,4.98557143 10.8295714,5.25492857 C10.9791429,5.45378571 11.0507143,5.76171429 11.0507143,6.18278571 L11.0507143,7.56192857 C11.0507143,7.98064286 10.9791429,8.29114286 10.8295714,8.48807143 C10.6322143,8.75678571 10.3545,8.89114286 9.99707143,8.89114286 C9.64135714,8.89114286 9.36342857,8.75678571 9.16607143,8.48807143 C9.01435714,8.29114286 8.94278571,7.98042857 8.94278571,7.56192857 L8.94278571,6.18278571 Z M7.03435714,3.552 L7.59621429,5.62735714 L8.136,3.552 L8.93635714,3.552 L7.98428571,6.69664286 L7.98428571,8.83714286 L7.19314286,8.83714286 L7.19314286,6.69664286 C7.12135714,6.31735714 6.963,5.76171429 6.70907143,5.02457143 C6.54235714,4.53407143 6.36857143,4.04207143 6.20185714,3.552 L7.03435714,3.552 Z M16.1112857,16.0845 C15.9681429,16.7057143 15.4600714,17.1642857 14.8482857,17.2326429 C13.3990714,17.3944286 11.9331429,17.3952857 10.4725714,17.3944286 C9.01264286,17.3952857 7.54585714,17.3944286 6.09707143,17.2326429 C5.48528571,17.1642857 4.977,16.7059286 4.83428571,16.0845 C4.6305,15.1997143 4.6305,14.2335 4.6305,13.3223571 C4.6305,12.4112143 4.63307143,11.4452143 4.83664286,10.5602143 C4.97957143,9.93878571 5.48742857,9.48021429 6.09921429,9.41207143 C7.54821429,9.25028571 9.01478571,9.24942857 10.4751429,9.25028571 C11.9350714,9.24942857 13.4016429,9.25028571 14.8506429,9.41207143 C15.4624286,9.48042857 15.9707143,9.93878571 16.1140714,10.5602143 C16.3172143,11.4452143 16.3159286,12.4112143 16.3159286,13.3223571 C16.3159286,14.2335 16.3150714,15.1997143 16.1112857,16.0845 Z" id="Shape"></path>
                <path d="M14.3935714,11.7955714 C14.0322857,11.7955714 13.7517857,11.9282143 13.5477857,12.195 C13.398,12.3921429 13.3296429,12.6968571 13.3296429,13.1132143 L13.3296429,14.4784286 C13.3296429,14.8926429 13.4061429,15.1995 13.5565714,15.3947143 C13.7603571,15.6608571 14.0417143,15.7939286 14.4111429,15.7939286 C14.7799286,15.7939286 15.0694286,15.6544286 15.2648571,15.3713571 C15.3505714,15.2462143 15.4062857,15.1045714 15.4298571,14.9481429 C15.4365,14.8774286 15.4448571,14.7207857 15.4448571,14.493 L15.4448571,14.3903571 L14.7246429,14.3903571 C14.7246429,14.6732143 14.7154286,14.8302857 14.7092143,14.8686429 C14.6689286,15.0574286 14.5673571,15.1517143 14.3935714,15.1517143 C14.151,15.1517143 14.0322857,14.9717143 14.0322857,14.6112857 L14.0322857,13.92 L15.4448571,13.92 L15.4448571,13.1127857 C15.4448571,12.6964286 15.3743571,12.3917143 15.2262857,12.1945714 C15.0289286,11.9284286 14.748,11.7955714 14.3935714,11.7955714 Z M14.739,13.3324286 L14.0327143,13.3324286 L14.0327143,12.9717857 C14.0327143,12.6113571 14.1512143,12.4311429 14.3871429,12.4311429 C14.6207143,12.4311429 14.739,12.6115714 14.739,12.9717857 L14.739,13.3324286 Z" id="Shape"></path>
            </g>
        </g>
    </g>
</svg>

<svg xmlns="http://www.w3.org/2000/svg" width="21" height="21" viewBox="0 0 21 21">
    <g fill="#AABCCA" fill-rule="nonzero">
        <path d="M5.502 11.246h.83v4.494h.786v-4.494h.846v-.736H5.502zM12.144 11.796c-.26 0-.502.141-.73.422V10.51h-.705v5.23h.706v-.377c.236.291.478.431.73.431.28 0 .47-.148.564-.438.047-.165.071-.425.071-.785v-1.552c0-.37-.024-.627-.071-.783-.094-.293-.284-.44-.565-.44zm-.07 2.83c0 .352-.104.526-.308.526-.116 0-.234-.056-.352-.174v-2.375c.118-.117.236-.172.352-.172.204 0 .308.18.308.532v1.663zM9.39 14.822c-.156.22-.304.33-.446.33-.094 0-.148-.056-.165-.165-.006-.023-.006-.11-.006-.275v-2.869h-.707v3.081c0 .276.024.462.063.58.07.198.228.29.455.29.26 0 .526-.157.807-.479v.426h.707v-3.898H9.39v2.979zM9.997 8.243c.23 0 .34-.183.34-.547V6.04c0-.364-.11-.546-.34-.546-.23 0-.34.182-.34.546v1.657c0 .365.11.547.34.547z"/>
        <path d="M10.473 0C4.69 0 0 4.689 0 10.473c0 5.784 4.689 10.473 10.473 10.473 5.784 0 10.473-4.689 10.473-10.473C20.946 4.69 16.257 0 10.473 0zm1.165 4.899h.712v2.9c0 .167 0 .253.008.277.016.11.072.167.168.167.142 0 .292-.11.45-.334v-3.01h.714v3.938h-.713v-.43c-.285.326-.556.484-.816.484-.23 0-.388-.093-.46-.292-.04-.12-.063-.308-.063-.586V4.899zM8.943 6.183c0-.421.071-.729.223-.928.197-.27.475-.404.831-.404.357 0 .635.135.833.404.15.199.22.507.22.928v1.379c0 .419-.07.73-.22.926-.198.269-.476.403-.833.403-.356 0-.634-.134-.83-.403-.153-.197-.224-.508-.224-.926v-1.38zM7.034 3.552l.562 2.075.54-2.075h.8l-.952 3.145v2.14h-.79v-2.14c-.073-.38-.231-.935-.485-1.672-.167-.49-.34-.983-.507-1.473h.832zm9.077 12.532a1.476 1.476 0 0 1-1.263 1.149c-1.449.161-2.915.162-4.375.161-1.46.001-2.927 0-4.376-.161a1.475 1.475 0 0 1-1.263-1.149c-.204-.884-.204-1.85-.204-2.762 0-.91.003-1.877.207-2.762.143-.621.65-1.08 1.262-1.148 1.45-.162 2.916-.163 4.376-.162 1.46 0 2.927 0 4.376.162.611.068 1.12.527 1.263 1.148.203.885.202 1.851.202 2.762 0 .912 0 1.878-.205 2.762z"/>
        <path d="M14.394 11.796c-.362 0-.642.132-.846.399-.15.197-.218.502-.218.918v1.365c0 .415.076.722.227.917.203.266.485.399.854.399s.658-.14.854-.423c.086-.125.141-.266.165-.423.007-.07.015-.227.015-.455v-.103h-.72c0 .283-.01.44-.016.479-.04.188-.142.283-.315.283-.243 0-.362-.18-.362-.54v-.692h1.413v-.807c0-.417-.07-.721-.219-.918-.197-.267-.478-.4-.832-.4zm.345 1.536h-.706v-.36c0-.36.118-.54.354-.54.234 0 .352.18.352.54v.36z"/>
    </g>
</svg>
